X:1
T:Title
%%score { ( 1 3 4 ) | ( 2 5 ) }
L:1/8
M:4/4
K:Ab
V:1 treble nm="Grand Piano"
V:3 treble 
V:4 treble 
V:2 bass 
V:5 bass 
V:1
 z4 z2[Q:1/4=100] [CE]2 | [CEc]2 [C=EB]>[CEB] [CFA]2 [D_EG]F | E2 d>d c3 c | e2 e>c A2 GA | %4
 [=DB]2 [DB]>[Dc] [_DB]3 [DE] | [CEc]2 [C=EB]>[CEB] [CFA]2 [D_EG]F | E2 d>d c3 c | B2 B>B B2 EA | %8
[M:3/4] G2 [=DG]>[DF] E2 |[M:1/4] E2 |[M:4/4] z4 d2 d2 | c2 z2 z4 | z4 c2 =d2 | %13
[M:9/8] [Ge]2 [A=d]- [Ad]/[Ad]/ [EB_d]2- [EBd] [DE]2 |[M:4/4] [CEc]2 [C=EB]>[CEB] [CFA]2 [D_EG]F | %15
 E2 d>d c3 c | e2 [Ae]>[Ae] [=Ae]3 [FBd] |[M:7/8] [EAc]2 [EGc]>[DEB] [CEA]3 |] %18
V:2
 z4 z2 A,,2 | A,,2 C,>C, F,2 D,[D,A,D] | [E,A,C]2 [E,B,E]>[E,B,E] [A,E]3 [A,E] | %3
 [A,CE]2 [A,CE]>[A,E] [F,CF]2 [F,CF][F,CE] | [B,,B,]2 [B,,F,]>[B,,A,] [E,G,]3 E, | %5
 A,,2 C,>C, F,2 D,[D,A,D] | [E,A,C]2 [E,B,E]>[E,B,E] [A,E]3 [A,E] | %7
 [G,B,E]2 [F,A,=D]>[F,A,D] [E,G,E]2 [G,B,][F,CE] |[M:3/4] [B,E]2 [B,,B,]>[B,,A,] [E,G,]2 | %9
[M:1/4] [E,G,]2 |[M:4/4] [E,B,]2 [E,B,]>[E,B,] [E,B,]2 .[E,B,F]2 | %11
 [A,,A,]2 [E,G,]>[E,B,] A,2 [G,C=E]2 | F4 z4 |[M:9/8] [E,B,]2 [F,B,]- [F,B,]/[F,B,]/ G,2- G, E,2 | %14
[M:4/4] A,,2 C,>C, F,2 D,[D,A,D] | [E,A,C]2 [E,B,E]>[E,B,E] [A,E]3 [A,E] | z4 .C2 z2 | %17
[M:7/8] E,2 E,>E, A,,3 |] %18
V:3
 x8 | x8 | x8 | x8 | x8 | x8 | x8 | x8 |[M:3/4] x6 |[M:1/4] x2 |[M:4/4] d2 d>d (3z AB (3z GF | %11
 E2- [E-B]>[E-d] [Ec]2 B2 | A2 B>B (3z GA (3FGA |[M:9/8] x9 |[M:4/4] x8 | x8 | x8 |[M:7/8] x7 |] %18
V:4
 x8 | x8 | x8 | x8 | x8 | x8 | x8 | x8 |[M:3/4] x6 |[M:1/4] x2 |[M:4/4] G6 z2 | x8 | x8 | %13
[M:9/8] x9 |[M:4/4] x8 | x8 | x8 |[M:7/8] x7 |] %18
V:5
 x8 | x8 | x8 | x8 | x8 | x8 | x8 | x8 |[M:3/4] x6 |[M:1/4] x2 |[M:4/4] x8 | x8 | %12
 [F,C]2 [F,B,]>[F,B,] .[F,A,F]2 [B,,B,]2 |[M:9/8] x9 |[M:4/4] x8 | x8 | %16
 [A,CE]2 [_G,C]>[G,C] F,- [F,F]2 B, |[M:7/8] x7 |] %18

